assets/images/payments/check-book(white).svg

<svg fill="none" height="100" viewBox="0 0 100 100" width="100" xmlns="http://www.w3.org/2000/svg" xmlns:xlink="http://www.w3.org/1999/xlink"><clipPath id="a"><path d="m0 0h100v100h-100z"/></clipPath><g clip-path="url(#a)" fill="#fff"><path d="m88.673 69.4121c.2649-2.0928.3735-4.3105.4198-6.4501.2475-7.9962-.5516-17.0853-3.0526-24.8464-.3126-.8901-.6877-1.7021-1.1252-2.436.9835-1.3902 1.7327-2.9678 2.2632-4.5921.7022-1.9992 1.1076-4.1077 1.0914-6.1692-.0475-2.3426-.8602-4.5288-2.3288-6.215-.1562-.1249-.3124-.2498-.4686-.3747-.2032-.5466-.5469-1.0775-1.0936-1.5146-.703-.562-1.5152-.8273-2.3741-.8739-.5779-.0779-1.0777-.0934-1.6399-.0307-1.6866.1879-3.2013.6412-4.6067 1.4381-2.0143 1.0782-3.7943 2.3437-5.4806 3.8122-.7807.6562-1.5457 1.4529-2.3107 2.2496-2.6541 2.9993-4.871 5.4519-6.7758 7.5139-14.243-.1208-28.502-1.0225-42.6986-2.6426-2.1709-.3273-4.4354-.2173-6.5748.3768-1.7959.4846-3.31046 1.5783-4.49696 3.0623-.99914 1.2497-1.68588 2.7491-2.15395 4.2954-.51486 1.7649-.87351 3.6547-1.02917 5.4507-1.07465 10.1517-.79058 20.3653.82091 30.36.34429 2.4518 1.57868 4.591 3.4532 6.0898 2.17127 1.6079 4.70157 2.6067 7.43467 2.8714 2.5302.3585 5.1071.4983 7.5902.4351 8.9644-.0026 17.8661-.5674 26.7835-.9917 8.3552-.3616 16.6478-1.2854 24.8626-.9911 1.796.1557 3.6389.0927 5.3879-.1733.9839-.1096 1.874-.4222 2.7484-.8754 1.015-.4688 1.7957-1.125 2.5607-1.9217.0625-.0781.1874-.2343.2498-.3124 1.4831-2.0151 2.3102-4.1705 2.5438-6.5444zm-3.3863-44.4461c-.0151 1.7804-.3113 3.5921-.9042 5.2946-.5149 1.7649-1.3422 3.28-2.4662 4.6859-.8743 1.0935-1.7642 2.0464-2.7947 3.015-1.0304.9685-2.1858 2.0933-3.3255 3.3587-.1249.1562-.1873.2343-.3122.3905-.6245.781-1.0928 1.687-1.3424 2.6397s-.2181 1.8742-.046 2.7799c.1094.3436.2188.6871.3283 1.0307.1094.3435.2812.609.375.812-.1405.0156-.2654.1718-.406.1875-.3435.1094-.6246.1407-.9057.1721-.2187-.0468-.3749-.1717-.5311-.2966-.3124-.2498-.5781-.7183-.6875-1.0618-.4377-1.3742-.5943-2.7797-.2511-4.1698.1093-.2967.1404-.6559.3277-.8903.1249-.1562.1717-.3748.1404-.6559.4371-.5468.9367-1.1716 1.4363-1.7964 2.17-2.8743 4.4648-5.9047 6.3694-8.6071 1.5455-2.0931 3.0129-4.2488 4.3865-6.6074.2966-.5311.4526-1.0465.6711-1.64-.0155.4998.0315.9214-.0621 1.3587zm-22.9813 25.5411c-.1249.1562-.3123.3905-.5621.7029-1.7485 2.187-3.6532 4.249-5.636 6.2486-1.6082 1.531-3.2944 2.9995-5.1525 4.2026-.4843-.5152-.9686-1.0305-1.5935-1.53-.9372-.7494-2.0775-1.405-3.2021-1.9201 2.5751-6.2633 6.0561-12.0583 10.24-17.2914.1873-.2343.3747-.4686.562-.7029.2498-.3124.5621-.703.8118-1.0154.1406-.0156.1406-.0156.2811-.0313.1406-.0156.2968.1092.5155.156 1.64.6711 3.2332 1.5608 4.6391 2.6849 1.1716.9367 2.2964 2.092 3.2181 3.3412-2.1856 2.7336-3.7468 4.6863-4.1214 5.1549zm-13.8802 12.7166c-.3436.1094-.6715.3594-1.015.4688-.609.2813-1.2961.5001-1.9208.6408-.1405.0157-.4216.047-.5622.0627l-.0781-.0625-.0781-.0624c-.0313-.2811-.125-.4841-.0158-.7809.0622-.7184.2026-1.3744.343-2.0303.0468-.2187.1092-.2968.156-.5155.8278.4059 1.5932.8898 2.2962 1.4518.3124.2498.6248.4996.8748.8275zm25.3663-41.1748c1.0461-.828 2.1703-1.5936 3.3883-2.1562 1.0775-.5469 2.2487-.8908 3.4355-1.0942.4217-.047.7028-.0783 1.062-.0471.2811-.0314.5779.0779.8122.2652l.0781.0625c.0781.0624.1562.1249.0938.203.0937.203.0469.4216.1407.6246.0315.9214-.0776 1.8585-.3272 2.8112-.0935.4373-.2652.8122-.4993 1.2652-1.3269 2.14-2.6538 4.2799-4.2149 6.2325-2.9037 3.9521-6.5568 8.8414-9.601 12.8091-.9842-1.171-2.0309-2.264-3.2025-3.2007-1.5621-1.2489-3.2334-2.2011-5.0297-2.997 2.3262-2.7494 5.558-6.3111 10.2417-11.5286 1.0773-1.1873 2.3107-2.2496 3.6223-3.2495zm10.0259 52.3153c-.4371.5467-1.0305.9686-1.6395 1.2499-1.015.4688-2.0613.6565-3.1232.7037-1.2026.0628-2.4832.0632-3.7014-.0146-8.4959-.263-16.8509.7389-25.1436 1.0224-8.9174.4243-17.8192.9891-26.643.976-2.3426.0476-4.779-.1079-7.1529-.3415-2.2333-.2492-4.3107-1.0139-6.0914-2.3096-1.32779-1.0616-2.14035-2.6075-2.46879-4.2784-1.51772-9.7917-1.77048-19.7243-.74261-29.6572.1713-1.6555.48317-3.3266.87313-4.9354.35885-1.2495.87389-2.374 1.62325-3.3113.81182-1.0154 1.87362-1.7028 3.10722-2.1249 1.7959-.4846 3.6387-.5476 5.3723-.3139 13.6345 1.6827 27.175 2.5222 40.6372 2.6588-1.7017 1.9683-3.0288 3.4679-4.0279 4.7176-.1874.2343-.4371.5468-.6245.7811-4.5586 5.7016-8.2581 12.0902-10.9892 18.869-.5618 1.3432-.9674 2.8114-1.2325 4.2639-.1404.6559-.1245 1.4368-.0462 2.1396.0313.2811.1251.4841.2188.687-.1249.1563-.2498.3125-.3747.4687-.2967-.1093-.6403.0002-.9057.172-.6716-.2809-1.3587-.062-1.7959.4847-.4371.5467-.7337 1.0778-1.1708 1.6245-.0781-.0624-.0781-.0624-.0938-.203-.1562-.1248-.2499-.3278-.4062-.4527-.3905-.3123-.7653-.484-1.2651-.4994-.4373-.0936-.859-.0466-1.265.1409-.3435.1094-.7495.2969-.9993.6094-.1873.2343-.4528.4061-.5777.5624-.4371.5467-1.0148 1.1091-1.4519 1.6558 0 0 0 0-.0625.0781-.0781-.0624-.1718-.2654-.2499-.3279-.0314-.2811-.1408-.6246-.1721-.9057.0155-.4998-.1096-.9839-.2347-1.468-.2188-.6871-.7188-1.3429-1.2655-1.78-.3124-.2498-.6092-.359-.9059-.4683-.3749-.1716-.7966-.1247-1.2182-.0777-.4217.047-.8277.2345-1.1556.4845-.2654.1718-.4528.4062-.5777.5624-1.0772 1.1872-2.2169 2.4525-3.2161 3.7022l-.0167-3.9824c-.0313-.2811-.0002-.6403-.1096-.9839-.1251-.4841-.3907-.9525-.7813-1.2648-.0781-.0624-.1562-.1248-.2343-.1873-.3749-.1717-.6716-.2809-1.0308-.312-.4217.0469-.8433.0939-1.1712.3439-.2655.1719-.5309.3437-.7183.578-.1249.1562-.3122.3906-.4371.5468-1.0616 1.3278-1.7483 2.8272-2.0602 4.4984-.1247.7965.4534 1.5147 1.3123 1.5613.7185.0623 1.3118-.3596 1.5146-1.0936.1247-.7965.39-1.6087.8114-2.296.0004 1.2806.0008 2.5612.0012 3.8419.0313.2811.0626.5622.0939.8433.1251.4841.3126.8901.7031 1.2023.3125.2498.6873.4215 1.1871.4369.4997.0155.9838-.1096 1.3117-.3595.2655-.1719.5309-.3438.7807-.6562 1.3895-1.5777 2.779-3.1555 4.1685-4.7333l.0624-.0781c.0781.0625.1719.2655.1876.406.1094.3436.1407.6247.172.9058-.0155.4997.1096.9838.2347 1.468.2188.6871.6407 1.2804 1.2655 1.78.3124.2498.6092.359.9841.5307.4373.0935.8746.1871 1.2962.1401.4217-.0469.7496-.2969 1.0775-.5469.2654-.1718.3903-.328.5777-.5624.4371-.5467 1.0148-1.1091 1.4519-1.6558.0624-.0781.1873-.2343.2498-.3124.0781.0624.0156.1405.0937.203.0938.203.1095.3435.2032.5465.1719.2654.3438.5309.5781.7182.2343.1874.6092.3591.9684.3902.4373.0936.9214-.0315 1.3274-.219.2654-.1719.5309-.3438.6401-.6405.0625-.0781.1249-.1562.1874-.2344l.921-1.3121c.3749.1717.7965.1247 1.1401.0153.2654-.1719.5309-.3437.7182-.5781.4217-.0469.7652-.1563 1.015-.4688.2498-.3124.562-.7029.8899-.9529.0781.0625.2187.0468.2968.1093.7184.0622 1.4212-.0161 2.1083-.2349.6871-.2189 1.3117-.3596 1.9832-.719 3.5134-1.6721 6.7455-3.9531 9.4934-6.7494 2.1233-2.0153 4.0749-4.296 5.8858-6.5611.2498-.3124.4371-.5467.562-.7029.3747-.4686 2.1232-2.6556 4.3557-5.6079.0469.4217.0782.7028.1877 1.0463.1407.6247.3595 1.3118.6408 1.9208s.7656 1.1242 1.2499 1.6394c.5467.4372 1.2184.7181 1.8743.8584.7966.1247 1.4993.0465 2.2489-.2505.3435-.1094.7495-.2969 1.015-.4688.2654-.1719.5933-.4218.8431-.7343.3747-.4686.5307-.984.5305-1.6243-.0626-.5622-.2034-1.1869-.4065-1.7334-.1719-.2655-.2032-.5466-.3127-.8901-.125-.4841-.1252-1.1245.0308-1.6399s.4526-1.0465.8273-1.5151c.0624-.0781.1249-.1562.1873-.2343 1.0773-1.1872 2.1077-2.1558 3.2007-3.2025.6401-.6405 1.2178-1.2029 1.8579-1.8434.1094.3436.2813.609.3907.9526 2.4384 7.1989 3.1438 16.0849 2.943 23.8625.0162 2.0614-.1862 4.0761-.3887 6.0908-.2181 1.8742-.811 3.5767-1.9194 5.1231.0313.2811-.0312.3592-.0936.4373z"/><path d="m37.6219 44.9062c-.0307-.7804-.6833-1.4083-1.4637-1.3776-8.3835.2402-16.8645.2791-25.303.0986-.7987-.1095-1.50582.4821-1.53606 1.3418-.10952.7988.48209 1.5059 1.34176 1.5361l.1403-.0183c8.4384.1805 16.9988.2025 25.4432-.1169.7804-.0307 1.4082-.6833 1.3775-1.4637z"/><path d="m39.2076 54.8483c-.07-.7779-.6964-1.4543-1.4743-1.3843l-20.8139.5608c-.7778.07-1.4543.6965-1.3843 1.4744s.6965 1.4543 1.4743 1.3843l20.8961-.504c.7779-.07 1.3721-.7533 1.3021-1.5312z"/><path d="m64.1415 60.2717 11.5251-.112c.7807-.0232 1.4147-.6697 1.3915-1.4504s-.6697-1.4147-1.4504-1.3915l-11.525.112c-.7807.0232-1.4148.6697-1.3916 1.4503-.0555.719.6697 1.4148 1.4504 1.3916z"/><path d="m81.5831 65.7808-18.4698.4968c-.7806.028-1.4106.6784-1.3826 1.4589.0281.7805.6785 1.4106 1.459 1.3826l18.4086-.4177c.7805-.028 1.4105-.6785 1.3825-1.459.0332-.8596-.6784-1.4106-1.3977-1.4616z"/></g></svg>

<svg width="100" height="100" viewBox="0 0 100 100" fill="none" xmlns="http://www.w3.org/2000/svg">
<g clip-path="url(#clip0_1_13)">
<path d="M88.673 69.4121C88.9379 67.3193 89.0465 65.1016 89.0928 62.962C89.3403 54.9658 88.5412 45.8767 86.0402 38.1156C85.7276 37.2255 85.3525 36.4135 84.915 35.6796C85.8985 34.2894 86.6477 32.7118 87.1782 31.0875C87.8804 29.0883 88.2858 26.9798 88.2696 24.9183C88.2221 22.5757 87.4094 20.3895 85.9408 18.7033C85.7846 18.5784 85.6284 18.4535 85.4722 18.3286C85.269 17.782 84.9253 17.2511 84.3786 16.814C83.6756 16.252 82.8634 15.9867 82.0045 15.9401C81.4266 15.8622 80.9268 15.8467 80.3646 15.9094C78.678 16.0973 77.1633 16.5506 75.7579 17.3475C73.7436 18.4257 71.9636 19.6912 70.2773 21.1597C69.4966 21.8159 68.7316 22.6126 67.9666 23.4093C65.3125 26.4086 63.0956 28.8612 61.1908 30.9232C46.9478 30.8024 32.6888 29.9007 18.4922 28.2806C16.3213 27.9533 14.0568 28.0633 11.9174 28.6574C10.1215 29.142 8.60694 30.2357 7.42044 31.7197C6.4213 32.9694 5.73456 34.4688 5.26649 36.0151C4.75163 37.78 4.39298 39.6698 4.23732 41.4658C3.16267 51.6175 3.44674 61.8311 5.05823 71.8258C5.40252 74.2776 6.63691 76.4168 8.51143 77.9156C10.6827 79.5235 13.213 80.5223 15.9461 80.787C18.4763 81.1455 21.0532 81.2853 23.5363 81.2221C32.5007 81.2195 41.4024 80.6547 50.3198 80.2304C58.675 79.8688 66.9676 78.945 75.1824 79.2393C76.9784 79.395 78.8213 79.332 80.5703 79.066C81.5542 78.9564 82.4443 78.6438 83.3187 78.1906C84.3337 77.7218 85.1144 77.0656 85.8794 76.2689C85.9419 76.1908 86.0668 76.0346 86.1292 75.9565C87.6123 73.9414 88.4394 71.786 88.673 69.4121V69.4121ZM85.2867 24.966C85.2716 26.7464 84.9754 28.5581 84.3825 30.2606C83.8676 32.0255 83.0403 33.5406 81.9163 34.9465C81.042 36.04 80.1521 36.9929 79.1216 37.9615C78.0912 38.93 76.9358 40.0548 75.7961 41.3202C75.6712 41.4764 75.6088 41.5545 75.4839 41.7107C74.8594 42.4917 74.3911 43.3977 74.1415 44.3504C73.8919 45.3031 73.9234 46.2246 74.0955 47.1303C74.2049 47.4739 74.3143 47.8174 74.4238 48.161C74.5332 48.5045 74.705 48.77 74.7988 48.973C74.6583 48.9886 74.5334 49.1448 74.3928 49.1605C74.0493 49.2699 73.7682 49.3012 73.4871 49.3326C73.2684 49.2858 73.1122 49.1609 72.956 49.036C72.6436 48.7862 72.3779 48.3177 72.2685 47.9742C71.8308 46.6 71.6742 45.1945 72.0174 43.8044C72.1267 43.5077 72.1578 43.1485 72.3451 42.9141C72.47 42.7579 72.5168 42.5393 72.4855 42.2582C72.9226 41.7114 73.4222 41.0866 73.9218 40.4618C76.0918 37.5875 78.3866 34.5571 80.2912 31.8547C81.8367 29.7616 83.3041 27.6059 84.6777 25.2473C84.9743 24.7162 85.1303 24.2008 85.3488 23.6073C85.3333 24.1071 85.3803 24.5287 85.2867 24.966V24.966ZM62.3054 50.5071C62.1805 50.6633 61.9931 50.8976 61.7433 51.21C59.9948 53.397 58.0901 55.459 56.1073 57.4586C54.4991 58.9896 52.8129 60.4581 50.9548 61.6612C50.4705 61.146 49.9862 60.6307 49.3613 60.1312C48.4241 59.3818 47.2838 58.7262 46.1592 58.2111C48.7343 51.9478 52.2153 46.1528 56.3992 40.9197C56.5865 40.6854 56.7739 40.4511 56.9612 40.2168C57.211 39.9044 57.5233 39.5138 57.773 39.2014C57.9136 39.1858 57.9136 39.1858 58.0541 39.1701C58.1947 39.1545 58.3509 39.2793 58.5696 39.3261C60.2096 39.9972 61.8028 40.8869 63.2087 42.011C64.3803 42.9477 65.5051 44.103 66.4268 45.3522C64.2412 48.0858 62.68 50.0385 62.3054 50.5071V50.5071ZM48.4252 63.2237C48.0816 63.3331 47.7537 63.5831 47.4102 63.6925C46.8012 63.9738 46.1141 64.1926 45.4894 64.3333C45.3489 64.349 45.0678 64.3803 44.9272 64.396L44.8491 64.3335L44.771 64.2711C44.7397 63.99 44.646 63.787 44.7552 63.4902C44.8174 62.7718 44.9578 62.1158 45.0982 61.4599C45.145 61.2412 45.2074 61.1631 45.2542 60.9444C46.082 61.3503 46.8474 61.8342 47.5504 62.3962C47.8628 62.646 48.1752 62.8958 48.4252 63.2237V63.2237ZM73.7915 22.0489C74.8376 21.2209 75.9618 20.4553 77.1798 19.8927C78.2573 19.3458 79.4285 19.0019 80.6153 18.7985C81.037 18.7515 81.3181 18.7202 81.6773 18.7514C81.9584 18.72 82.2552 18.8293 82.4895 19.0166L82.5676 19.0791C82.6457 19.1415 82.7238 19.204 82.6614 19.2821C82.7551 19.4851 82.7083 19.7037 82.8021 19.9067C82.8336 20.8281 82.7245 21.7652 82.4749 22.7179C82.3814 23.1552 82.2097 23.5301 81.9756 23.9831C80.6487 26.1231 79.3218 28.263 77.7607 30.2156C74.857 34.1677 71.2039 39.057 68.1597 43.0247C67.1755 41.8537 66.1288 40.7607 64.9572 39.824C63.3951 38.5751 61.7238 37.6229 59.9275 36.827C62.2537 34.0776 65.4855 30.5159 70.1692 25.2984C71.2465 24.1111 72.4799 23.0488 73.7915 22.0489L73.7915 22.0489ZM83.8174 74.3642C83.3803 74.9109 82.7869 75.3328 82.1779 75.6141C81.1629 76.0829 80.1166 76.2706 79.0547 76.3178C77.8521 76.3806 76.5715 76.381 75.3533 76.3032C66.8574 76.0402 58.5024 77.0421 50.2097 77.3256C41.2923 77.7499 32.3905 78.3147 23.5667 78.3016C21.2241 78.3492 18.7877 78.1937 16.4138 77.9601C14.1805 77.7109 12.1031 76.9462 10.3224 75.6505C8.99461 74.5889 8.18205 73.043 7.85361 71.3721C6.33589 61.5804 6.08313 51.6478 7.111 41.7149C7.2823 40.0594 7.59417 38.3883 7.98413 36.7795C8.34298 35.53 8.85802 34.4055 9.60738 33.4682C10.4192 32.4528 11.481 31.7654 12.7146 31.3433C14.5105 30.8587 16.3533 30.7957 18.0869 31.0294C31.7214 32.7121 45.2619 33.5516 58.7241 33.6882C57.0224 35.6565 55.6953 37.1561 54.6962 38.4058C54.5088 38.6401 54.2591 38.9526 54.0717 39.1869C49.5131 44.8885 45.8136 51.2771 43.0825 58.0559C42.5207 59.3991 42.1151 60.8673 41.85 62.3198C41.7096 62.9757 41.7255 63.7566 41.8038 64.4594C41.8351 64.7405 41.9289 64.9435 42.0226 65.1464C41.8977 65.3027 41.7728 65.4589 41.6479 65.6151C41.3512 65.5058 41.0076 65.6153 40.7422 65.7871C40.0706 65.5062 39.3835 65.7251 38.9463 66.2718C38.5092 66.8185 38.2126 67.3496 37.7755 67.8963C37.6974 67.8339 37.6974 67.8339 37.6817 67.6933C37.5255 67.5685 37.4318 67.3655 37.2755 67.2406C36.885 66.9283 36.5102 66.7566 36.0104 66.7412C35.5731 66.6476 35.1514 66.6946 34.7454 66.8821C34.4019 66.9915 33.9959 67.179 33.7461 67.4915C33.5588 67.7258 33.2933 67.8976 33.1684 68.0539C32.7313 68.6006 32.1536 69.163 31.7165 69.7097C31.7165 69.7097 31.7165 69.7097 31.654 69.7878C31.5759 69.7254 31.4822 69.5224 31.4041 69.4599C31.3727 69.1788 31.2633 68.8353 31.232 68.5542C31.2475 68.0544 31.1224 67.5703 30.9973 67.0862C30.7785 66.3991 30.2785 65.7433 29.7318 65.3062C29.4194 65.0564 29.1226 64.9472 28.8259 64.8379C28.451 64.6663 28.0293 64.7132 27.6077 64.7602C27.186 64.8072 26.78 64.9947 26.4521 65.2447C26.1867 65.4165 25.9993 65.6509 25.8744 65.8071C24.7972 66.9943 23.6575 68.2596 22.6583 69.5093L22.6416 65.5269C22.6103 65.2458 22.6414 64.8866 22.532 64.543C22.4069 64.0589 22.1413 63.5905 21.7507 63.2782C21.6726 63.2158 21.5945 63.1534 21.5164 63.0909C21.1415 62.9192 20.8448 62.81 20.4856 62.7789C20.0639 62.8258 19.6423 62.8728 19.3144 63.1228C19.0489 63.2947 18.7835 63.4665 18.5961 63.7008C18.4712 63.857 18.2839 64.0914 18.159 64.2476C17.0974 65.5754 16.4107 67.0748 16.0988 68.746C15.9741 69.5425 16.5522 70.2607 17.4111 70.3073C18.1296 70.3696 18.7229 69.9477 18.9257 69.2137C19.0504 68.4172 19.3157 67.605 19.7371 66.9177C19.7375 68.1983 19.7379 69.4789 19.7383 70.7596C19.7696 71.0407 19.8009 71.3218 19.8322 71.6029C19.9573 72.087 20.1448 72.493 20.5353 72.8052C20.8478 73.055 21.2226 73.2267 21.7224 73.2421C22.2221 73.2576 22.7062 73.1325 23.0341 72.8826C23.2996 72.7107 23.565 72.5388 23.8148 72.2264C25.2043 70.6487 26.5938 69.0709 27.9833 67.4931L28.0457 67.415C28.1238 67.4775 28.2176 67.6805 28.2333 67.821C28.3427 68.1646 28.374 68.4457 28.4053 68.7268C28.3898 69.2265 28.5149 69.7106 28.64 70.1948C28.8588 70.8819 29.2807 71.4752 29.9055 71.9748C30.2179 72.2246 30.5147 72.3338 30.8896 72.5055C31.3269 72.599 31.7642 72.6926 32.1858 72.6456C32.6075 72.5987 32.9354 72.3487 33.2633 72.0987C33.5287 71.9269 33.6536 71.7707 33.841 71.5363C34.2781 70.9896 34.8558 70.4272 35.2929 69.8805C35.3553 69.8024 35.4802 69.6462 35.5427 69.5681C35.6208 69.6305 35.5583 69.7086 35.6364 69.7711C35.7302 69.9741 35.7459 70.1146 35.8396 70.3176C36.0115 70.583 36.1834 70.8485 36.4177 71.0358C36.652 71.2232 37.0269 71.3949 37.3861 71.426C37.8234 71.5196 38.3075 71.3945 38.7135 71.207C38.9789 71.0351 39.2444 70.8632 39.3536 70.5665C39.4161 70.4884 39.4785 70.4103 39.541 70.3321L40.462 69.02C40.8369 69.1917 41.2585 69.1447 41.6021 69.0353C41.8675 68.8634 42.133 68.6916 42.3203 68.4572C42.742 68.4103 43.0855 68.3009 43.3353 67.9884C43.5851 67.676 43.8973 67.2855 44.2252 67.0355C44.3033 67.098 44.4439 67.0823 44.522 67.1448C45.2404 67.207 45.9432 67.1287 46.6303 66.9099C47.3174 66.691 47.942 66.5503 48.6135 66.1909C52.1269 64.5188 55.359 62.2378 58.1069 59.4415C60.2302 57.4262 62.1818 55.1455 63.9927 52.8804C64.2425 52.568 64.4298 52.3337 64.5547 52.1775C64.9294 51.7089 66.6779 49.5219 68.9104 46.5696C68.9573 46.9913 68.9886 47.2724 69.0981 47.6159C69.2388 48.2406 69.4576 48.9277 69.7389 49.5367C70.0202 50.1457 70.5045 50.6609 70.9888 51.1761C71.5355 51.6133 72.2072 51.8942 72.8631 52.0345C73.6597 52.1592 74.3624 52.081 75.112 51.784C75.4555 51.6746 75.8615 51.4871 76.127 51.3152C76.3924 51.1433 76.7203 50.8934 76.9701 50.5809C77.3448 50.1123 77.5008 49.5969 77.5006 48.9566C77.438 48.3944 77.2972 47.7697 77.0941 47.2232C76.9222 46.9577 76.8909 46.6766 76.7814 46.3331C76.6564 45.849 76.6562 45.2086 76.8122 44.6932C76.9682 44.1778 77.2648 43.6467 77.6395 43.1781C77.7019 43.1 77.7644 43.0219 77.8268 42.9438C78.9041 41.7566 79.9345 40.788 81.0275 39.7413C81.6676 39.1008 82.2453 38.5384 82.8854 37.8979C82.9948 38.2415 83.1667 38.5069 83.2761 38.8505C85.7145 46.0494 86.4199 54.9354 86.2191 62.713C86.2353 64.7744 86.0329 66.7891 85.8304 68.8038C85.6123 70.678 85.0194 72.3805 83.911 73.9269C83.9423 74.208 83.8798 74.2861 83.8174 74.3642L83.8174 74.3642Z" fill="white"/>
<path d="M37.6219 44.9062C37.5912 44.1258 36.9386 43.4979 36.1582 43.5286C27.7747 43.7688 19.2937 43.8077 10.8552 43.6272C10.0565 43.5177 9.34938 44.1093 9.31914 44.969C9.20962 45.7678 9.80123 46.4749 10.6609 46.5051L10.8012 46.4868C19.2396 46.6673 27.8 46.6893 36.2444 46.3699C37.0248 46.3392 37.6526 45.6866 37.6219 44.9062V44.9062Z" fill="white"/>
<path d="M39.2076 54.8483C39.1376 54.0704 38.5112 53.394 37.7333 53.464L16.9194 54.0248C16.1416 54.0948 15.4651 54.7213 15.5351 55.4992C15.6051 56.2771 16.2316 56.9535 17.0094 56.8835L37.9055 56.3795C38.6834 56.3095 39.2776 55.6262 39.2076 54.8483V54.8483Z" fill="white"/>
<path d="M64.1415 60.2717L75.6666 60.1597C76.4473 60.1365 77.0813 59.49 77.0581 58.7093C77.0349 57.9286 76.3884 57.2946 75.6077 57.3178L64.0827 57.4298C63.302 57.453 62.6679 58.0995 62.6911 58.8801C62.6356 59.5991 63.3608 60.2949 64.1415 60.2717Z" fill="white"/>
<path d="M81.5831 65.7808L63.1133 66.2776C62.3327 66.3056 61.7027 66.956 61.7307 67.7365C61.7588 68.517 62.4092 69.1471 63.1897 69.1191L81.5983 68.7014C82.3788 68.6734 83.0088 68.0229 82.9808 67.2424C83.014 66.3828 82.3024 65.8318 81.5831 65.7808Z" fill="white"/>
</g>
<defs>
<clipPath id="clip0_1_13">
<rect width="100" height="100" fill="white"/>
</clipPath>
</defs>
</svg>
